!!!OTL@@DE: Abschied
!!!ONB: &Auml;ltere Volksweise (1816) gedruckt
!!!ODT: <1816
!!!OMD: Sehr m&auml;ssig
!!!ONB: Nach dem Volksliede "Sch&auml;tzchen, ade!"
!!!ONB: Strophe 2 u. 3 von Ottmar Sch&ouml;nhuth (1827)
!!!LDT: 1827
!!!OCL: Erk, Ludwig
!!!GCO: Deutscher Liederschatz, Band 1
**kern	**kern	**kern
*staff3	*staff2	*staff1
*Ipiano	*Ipiano	*Ivox
=1-	=1-	=1-
*clefF4	*clefG2	*clefG2
*k[f#]	*k[f#]	*k[f#]
*G:	*G:	*G:
*M3/8	*M3/8	*M3/8
*MM72	*MM72	*MM72
*^	*^	*
8r	4.GG\	8b/L	16g\LL	8b\
.	.	.	16d\	.
8D/L	.	8b/	16g\	8b\
.	.	.	16d\	.
8F#/J	.	8a/J	16c\	8a/
.	.	.	16d\JJ	.
=2	=2	=2	=2	=2
8r	4.GG\	4.g/	16B\LL	4g/
.	.	.	16d\	.
8D/L	.	.	16B\	.
.	.	.	16d\	.
8G/J	.	.	16B\	8r
.	.	.	16d\JJ	.
=3	=3	=3	=3	=3
8r	4.GG\	8b/L	16g\LL	8b\
.	.	.	16d\	.
8D/L	.	8b/	16g\	8b\
.	.	.	16d\	.
8F#/J	.	8a/J	16c\	8a/
.	.	.	16d\JJ	.
=4	=4	=4	=4	=4
8r	4.GG\	4.g/	16B\LL	4g/
.	.	.	16d\	.
8D/L	.	.	16B\	.
.	.	.	16d\	.
8G/J	.	.	16B\	8r
.	.	.	16d\JJ	.
*	*	*v	*v	*
=5	=5	=5	=5
8r	4.GG\	16g/ 16b/LL	8b\
.	.	16d/	.
8D/L	.	16a/ 16cc/	8cc\
.	.	16d/JJ	.
8G/J	.	16b/ 16dd/LL	8dd\
.	.	16d/JJ	.
=6	=6	=6	=6
8F#/L	4.D\	16b/ 16dd/LL	8dd\
.	.	16d/	.
8F#/	.	16a/ 16cc/	(16cc\LL
.	.	16g#/ 16b/JJ	16b\JJ)
8F#/J	.	16a/ 16cc/LL	8cc\
.	.	16d/JJ	.
=7	=7	=7	=7
4D/	8D\L	16f#/ 16a/LL	8a/
.	.	16d/	.
.	8D\	16gn/ 16b/	8b\
.	.	16d/JJ	.
8F#/	8D\J	16a/ 16cc/LL	8cc\
.	.	16d/JJ	.
=8	=8	=8	=8
8r	4.GG\	16a/ 16cc/LL	8cc\
.	.	16d/	.
8D/L	.	16g/ 16b/	(16b/LL
.	.	16f#/ 16a/JJ	16a/JJ)
8G/J	.	16g/ 16b/LL	8b\
.	.	16d/JJ	.
=9	=9	=9	=9
8r	4.GG\	16g/ 16b/LL	8b\
.	.	16d/	.
8D/L	.	16g/ 16b/	8b\
.	.	16d/JJ	.
8G/J	.	16a/ 16cc/LL	8cc\
.	.	16d/JJ	.
=10	=10	=10	=10
8r	4.GG\	16b/ 16dd/LL	4.dd\
.	.	16d/	.
8D/L	.	16g/ 16b/	.
.	.	16d/JJ	.
8G/J	.	16B/ 16g/LL	.
.	.	16d/JJ	.
=11	=11	=11	=11
8r	8DD/	16B/LL	8b\
.	.	16d/	.
8D/L	4D\	16g/ 16b/	8b\
.	.	16d/JJ	.
8F#/J	.	16c/ 16a/LL	8a/
.	.	16d/JJ	.
*v	*v	*	*
=12	=12	=12
8GG\ 8D\L	8B/ 8g/L	4g/
8G\ 8d\J	8g/ 8b/ 8gg/J	.
8r	8r	8r
==	==	==
*-	*-	*-
!!!ENC: Craig Stuart Sapp
!!!END: 2004/06/03/
!!!EFL: 070/651
